assets/github.svg

<svg xmlns="http://www.w3.org/2000/svg" fill="none" viewBox="0 0 28 28">
  <path fill="#2A2238" d="M14 0C6.265 0 0 6.265 0 14c0 6.195 4.0075 11.4275 9.5725 13.2825.7.1225.9625-.2975.9625-.665 0-.3325-.0175-1.435-.0175-2.6075C7 24.6575 6.09 23.1525 5.81 22.365c-.1575-.4025-.84-1.645-1.435-1.9775-.49-.2625-1.19-.91-.0175-.9275 1.1025-.0175 1.89 1.015 2.1525 1.435 1.26 2.1175 3.2725 1.5225 4.0775 1.155.1225-.91.49-1.5225.8925-1.8725-3.115-.35-6.37-1.5575-6.37-6.9125 0-1.5225.5425-2.7825 1.435-3.7625-.14-.35-.63-1.785.14-3.71 0 0 1.1725-.3675 3.85 1.435 1.12-.315 2.31-.4725 3.5-.4725s2.38.1575 3.5.4725c2.6775-1.82 3.85-1.435 3.85-1.435.77 1.925.28 3.36.14 3.71.8925.98 1.435 2.2225 1.435 3.7625 0 5.3725-3.2725 6.5625-6.3875 6.9125.5075.4375.945 1.2775.945 2.59 0 1.8725-.0175 3.3775-.0175 3.85 0 .3675.2625.805.9625.665 2.7794-.938 5.1946-2.7242 6.9055-5.1069C27.079 19.7928 27.9995 16.9334 28 14c0-7.735-6.265-14-14-14Z"/>
</svg>

<svg width="28" height="28" viewBox="0 0 28 28" fill="none" xmlns="http://www.w3.org/2000/svg">
<path d="M14 0C6.265 0 0 6.265 0 14C0 20.195 4.0075 25.4275 9.5725 27.2825C10.2725 27.405 10.535 26.985 10.535 26.6175C10.535 26.285 10.5175 25.1825 10.5175 24.01C7 24.6575 6.09 23.1525 5.81 22.365C5.6525 21.9625 4.97 20.72 4.375 20.3875C3.885 20.125 3.185 19.4775 4.3575 19.46C5.46 19.4425 6.2475 20.475 6.51 20.895C7.77 23.0125 9.7825 22.4175 10.5875 22.05C10.71 21.14 11.0775 20.5275 11.48 20.1775C8.365 19.8275 5.11 18.62 5.11 13.265C5.11 11.7425 5.6525 10.4825 6.545 9.5025C6.405 9.1525 5.915 7.7175 6.685 5.7925C6.685 5.7925 7.8575 5.425 10.535 7.2275C11.655 6.9125 12.845 6.755 14.035 6.755C15.225 6.755 16.415 6.9125 17.535 7.2275C20.2125 5.4075 21.385 5.7925 21.385 5.7925C22.155 7.7175 21.665 9.1525 21.525 9.5025C22.4175 10.4825 22.96 11.725 22.96 13.265C22.96 18.6375 19.6875 19.8275 16.5725 20.1775C17.08 20.615 17.5175 21.455 17.5175 22.7675C17.5175 24.64 17.5 26.145 17.5 26.6175C17.5 26.985 17.7625 27.4225 18.4625 27.2825C21.2419 26.3445 23.6571 24.5583 25.368 22.1756C27.079 19.7928 27.9995 16.9334 28 14C28 6.265 21.735 0 14 0Z" fill="#2A2238"/>
</svg>
